tools/download-figma-icons/icons/outlined-large/house-connection.svg

<svg width="64" height="64" viewBox="0 0 64 64" fill="none" xmlns="http://www.w3.org/2000/svg">
<path fill-rule="evenodd" clip-rule="evenodd" d="M31.9058 3.51875L7.5068 25.6118C6.8948 26.1678 5.9458 26.1228 5.3878 25.5068C4.8318 24.8918 4.8788 23.9438 5.4928 23.3868L30.8958 0.386753C31.4658 -0.127247 32.3328 -0.129247 32.9048 0.382753L58.5028 23.3828C59.1188 23.9368 59.1698 24.8858 58.6158 25.5028C58.3198 25.8318 57.9098 25.9998 57.4988 25.9998C57.1428 25.9998 56.7838 25.8728 56.4968 25.6158L31.9058 3.51875ZM30 58.9995C30 60.1025 30.897 60.9995 32 60.9995C33.103 60.9995 34 60.1025 34 58.9995C34 57.8965 33.103 56.9995 32 56.9995C30.897 56.9995 30 57.8965 30 58.9995ZM36.745 57.4995H62.5C63.328 57.4995 64 58.1715 64 58.9995C64 59.8275 63.328 60.4995 62.5 60.4995H36.745C36.104 62.5205 34.23 63.9995 32 63.9995C29.77 63.9995 27.896 62.5205 27.255 60.4995H1.5C0.672 60.4995 0 59.8275 0 58.9995C0 58.1715 0.672 57.4995 1.5 57.4995H27.255C27.746 55.9545 28.955 54.7455 30.5 54.2545V49.9995H12.5C11.672 49.9995 11 49.3275 11 48.4995V27.4995C11 26.6715 11.672 25.9995 12.5 25.9995C13.328 25.9995 14 26.6715 14 27.4995V46.9995H32H50V27.4995C50 26.6715 50.672 25.9995 51.5 25.9995C52.328 25.9995 53 26.6715 53 27.4995V48.4995C53 49.3275 52.328 49.9995 51.5 49.9995H33.5V54.2545C35.045 54.7455 36.254 55.9545 36.745 57.4995Z" fill="black"/>
</svg>

<svg xmlns="http://www.w3.org/2000/svg" width="64" height="64" fill="none" viewBox="0 0 64 64"><path fill="currentColor" fill-rule="evenodd" d="m31.906 3.519-24.4 22.093a1.502 1.502 0 0 1-2.014-2.225l25.404-23a1.504 1.504 0 0 1 2.009-.004l25.598 23a1.502 1.502 0 0 1-2.006 2.233zM30 58.999c0 1.103.897 2 2 2s2-.897 2-2-.897-2-2-2-2 .898-2 2m6.745-1.5H62.5a1.5 1.5 0 0 1 0 3H36.745C36.104 62.52 34.23 64 32 64s-4.104-1.479-4.745-3.5H1.5a1.5 1.5 0 0 1 0-3h25.755a4.99 4.99 0 0 1 3.245-3.245V50h-18a1.5 1.5 0 0 1-1.5-1.5v-21a1.5 1.5 0 0 1 3 0V47h36V27.5a1.5 1.5 0 0 1 3 0v21a1.5 1.5 0 0 1-1.5 1.5h-18v4.255a4.99 4.99 0 0 1 3.245 3.244" clip-rule="evenodd"/></svg>
